X: 96
T:Missa Malheur me bat / Kyrie
N: Derived from Jos0901a-Missa_Malheur_me_bat-Kyrie.krn
C: Josquin des Prez
%%abc-version 2.0
%%abcx-abcm2ps-target-version 5.9.1 (29 Sep 2008)
%%abc-creator hum2abc beta
%%abcx-conversion-date 2019/02/12 16:15:42
%%abc-edited-by Jesse Rodin
%%abc-edited-by Jesse Rodin; Victoria Chang 2011/04/14
%%abcx-initial-encoding-date 2011/04/14/
%%humdrum-veritas 588972209
%%humdrum-veritas-data 2176868698
%%linebreak <none>
%%barnumbers 0
L: 1/4
M: 4/2
Q: 1/2=120
%%staves [1 2 3 4]
V: 1 clef=treble
V: 2 clef=treble-8
V: 3 clef=treble-8
V: 4 clef=bass
K: C
[V:1] E8 | 
[V:2] e8 | 
[V:3] z8 | 
[V:4] z8 | 
[V:1] B4B4 | 
[V:2] e4d3c | 
[V:3] z8 | 
[V:4] z8 | 
[V:1] c4c4 | 
[V:2] A8 | 
[V:3] z8 | 
[V:4] z8 | 
[V:1] B4G4 | 
[V:2] z2e4e2 | 
[V:3] z8 | 
[V:4] z8 | 
[V:1] A4A4 | 
[V:2] d3cA4 | 
[V:3] z8 | 
[V:4] z8 | 
[V:1] G4E4 | 
[V:2] z2e4e2 | 
[V:3] z8 | 
[V:4] z8 | 
[V:1] F4F4 | 
[V:2] d3cA4 | 
[V:3] z8 | 
[V:4] z8 | 
[V:1] E3FG2A2- | 
[V:2] c3de2A2- | 
[V:3] z8 | 
[V:4] z8 | 
[V:1] A2E2F2G2 | 
[V:2] ABc2d2e2 | 
[V:3] z8 | 
[V:4] z8 | 
[V:1] A2E2F4 | 
[V:2] A2e4d2 | 
[V:3] z8 | 
[V:4] z8 | 
[V:1] E4z2E2 | 
[V:2] e8 | 
[V:3] E8 | 
[V:4] E,8 | 
[V:1] G4F3G | 
[V:2] z2B2d4 | 
[V:3] B4B4 | 
[V:4] E,4D,3C, | 
[V:1] A4z2E2 | 
[V:2] c2e6 | 
[V:3] c4c4 | 
[V:4] A,,8 | 
[V:1] G8 | 
[V:2] E4z2B2 | 
[V:3] B4G4 | 
[V:4] z2E,4E,2 | 
[V:1] F3GA2E2 | 
[V:2] d4c3d | 
[V:3] A4A4 | 
[V:4] D,3C,A,,4 | 
[V:1] G8 | 
[V:2] e4z2B2 | 
[V:3] G4E4 | 
[V:4] z2E,4E,2 | 
[V:1] F3GABc2- | 
[V:2] d2A2c3d | 
[V:3] F4F4 | 
[V:4] D,3C,A,,2A,,2 | 
[V:1] c2BAG2C2- | 
[V:2] e3dB2A2 | 
[V:3] E3FG2A2- | 
[V:4] C,3D,E,2A,,2- | 
[V:1] CDE2A,2E2- | 
[V:2] e4z2B2 | 
[V:3] A2E2F2G2 | 
[V:4] A,,B,,C,2D,2E,2 | 
[V:1] EFG2A4 | 
[V:2] c2Be2Ad2 | 
[V:3] A2E2F4 | 
[V:4] A,,2E,4D,2 | 
[V:1] G8- | 
[V:2] G2c2BGc2 | 
[V:3] E8- | 
[V:4] E,8- | 
[V:1] G8 ||  
[V:2] B8 ||  
[V:3] E8 ||  
[V:4] E,8 ||  
[V:1]  [K:C] [K:clef=treble][M:2/1]E4G4- | 
[V:2]  [K:C] [K:clef=treble-8][M:2/1]z4e4 | 
[V:3]  [K:C] [K:clef=treble-8][M:2/1]z8 | 
[V:4]  [K:C] [K:clef=bass][M:2/1]z8 | 
[V:1] G2A2B4 | 
[V:2] c4d2e2- | 
[V:3] z8 | 
[V:4] z8 | 
[V:1] E4G4- | 
[V:2] e2A2B4 | 
[V:3] z8 | 
[V:4] z8 | 
[V:1] G2A2B4 | 
[V:2] c4B2G2- | 
[V:3] z8 | 
[V:4] z8 | 
[V:1] E4G3A | 
[V:2] G2A2B4 | 
[V:3] z8 | 
[V:4] z8 | 
[V:1] B2E2G3A | 
[V:2] E2e4dc | 
[V:3] z8 | 
[V:4] z8 | 
[V:1] B8 | 
[V:2] dcBAG3A | 
[V:3] z8 | 
[V:4] z8 | 
[V:1] z2E2G3A | 
[V:2] B2c2B2e2- | 
[V:3] z8 | 
[V:4] z8 | 
[V:1] B4z2E2 | 
[V:2] edB2c4 | 
[V:3] z8 | 
[V:4] z8 | 
[V:1] G3ABcd2- | 
[V:2] B2e3cf2- | 
[V:3] z8 | 
[V:4] z8 | 
[V:1] dcc4B2 | 
[V:2] fec2d4 | 
[V:3] z8 | 
[V:4] z8 | 
[V:1] c2A2G4 | 
[V:2] z2c4B2 | 
[V:3] z8 | 
[V:4] z8 | 
[V:1] z2c4B2 | 
[V:2] c2A4G2 | 
[V:3] z8 | 
[V:4] z8 | 
[V:1] c2A3Gd2- | 
[V:2] A2c2B4 | 
[V:3] z8 | 
[V:4] z8 | 
[V:1] dcc4B2 | 
[V:2] A2e4d2 | 
[V:3] z8 | 
[V:4] z8 | 
[V:1] A2G2F4 | 
[V:2] c2e4d2 | 
[V:3] z8 | 
[V:4] z8 | 
[V:1] z2E2G3A | 
[V:2] e6dc | 
[V:3] z8 | 
[V:4] z8 | 
[V:1] B2E2G2E2 | 
[V:2] B2c2B2G2- | 
[V:3] z8 | 
[V:4] z8 | 
[V:1] G3AB2c2- | 
[V:2] GAB2E2e2- | 
[V:3] z8 | 
[V:4] z8 | 
[V:1] c2BA^GABG | 
[V:2] e2dcB4 | 
[V:3] z4e4 | 
[V:4] z4E,4 | 
[V:1] A4z4 | 
[V:2] A6G2 | 
[V:3] c4d2e2- | 
[V:4] F,6E,2 | 
[V:1] z8 | 
[V:2] c3de4- | 
[V:3] e2A2B4 | 
[V:4] F,4E,4 | 
[V:1] z2E2G3A | 
[V:2] e4E4 | 
[V:3] c4B2G2- | 
[V:4] z8 | 
[V:1] B2E2G3A | 
[V:2] z4E4 | 
[V:3] G2A2B4 | 
[V:4] z8 | 
[V:1] B4z4 | 
[V:2] G4A2G2 | 
[V:3] E2e4dc | 
[V:4] z2E,2F,2E,2 | 
[V:1] z4z2E2 | 
[V:2] A4B4 | 
[V:3] dcBAG3A | 
[V:4] F,4E,4 | 
[V:1] G3AB2c2- | 
[V:2] E8 | 
[V:3] B2c2B2e2- | 
[V:4] z8 | 
[V:1] cBB4A2 | 
[V:2] z8 | 
[V:3] edB2c4 | 
[V:4] z8 | 
[V:1] B4z4 | 
[V:2] z2B2c2B2- | 
[V:3] B2e3df2 | 
[V:4] z2E,2C,2D,2 | 
[V:1] z8 | 
[V:2] BAA4^G2 | 
[V:3] e2c2d4 | 
[V:4] A,,3C,B,,4 | 
[V:1] z2E2C2D2 | 
[V:2] A4z4 | 
[V:3] z2c4B2 | 
[V:4] A,,4z4 | 
[V:1] A,3CB,4 | 
[V:2] z4z2e2 | 
[V:3] c2A4G2 | 
[V:4] z4E,4 | 
[V:1] z4G4 | 
[V:2] d2e3fg2 | 
[V:3] A2c2B4 | 
[V:4] F,2E,3D,E,2 | 
[V:1] A2G2A4- | 
[V:2] c4z4 | 
[V:3] A2e4d2 | 
[V:4] F,2E,2F,4- | 
[V:1] A2G2A4 | 
[V:2] z4A4 | 
[V:3] c2e4d2 | 
[V:4] F,2E,2F,4 | 
[V:1] G8- | 
[V:2] B2c4BA | 
[V:3] e6dc | 
[V:4] E,8- | 
[V:1] G8- | 
[V:2] G3AB2E2 | 
[V:3] B2c2B2G2- | 
[V:4] E,8 | 
[V:1] G8 | 
[V:2] G3AB2E2 | 
[V:3] GAB2E2e2- | 
[V:4] z4E,4- | 
[V:1] z4G4 | 
[V:2] e8 | 
[V:3] e2dcB4 | 
[V:4] E,4E,4 | 
[V:1] A2G2A4 | 
[V:2] z4A4 | 
[V:3] A2c4d2 | 
[V:4] F,2E,2F,4 | 
[V:1] G8- | 
[V:2] B2G4FE | 
[V:3] e3dB2c2- | 
[V:4] E,8- | 
[V:1] G8 ||  
[V:2] e8 ||  
[V:3] c2BAB4 ||  
[V:4] E,8 ||  
[V:1]  [K:C] [K:clef=treble][M:3/1]z4E3FG2E2 | 
[V:2]  [K:C] [K:clef=treble-8][M:3/1]E3FG2A2B2c2 | 
[V:3]  [K:C] [K:clef=treble-8][M:3/1]E4E4E4 | 
[V:4]  [K:C] [K:clef=bass][M:3/1]E,6A,,2E,4 | 
[V:1] A4G3EE4 | 
[V:2] d2A2c2B4A2 | 
[V:3] F4E4z2A2- | 
[V:4] D,4z2E,4A,,2 | 
[V:1] z2G4F2G3E | 
[V:2] B2c2d4z2G2- | 
[V:3] A2G2A4B4 | 
[V:4] E,4D,4z2E,2- | 
[V:1] E4z2G4F2 | 
[V:2] G2A2B2c2d4 | 
[V:3] c4B2G2A4 | 
[V:4] E,2A,,2E,4D,4 | 
[V:1] G3EE2A3GG2- | 
[V:2] B4G2A2B2c2 | 
[V:3] G2G4F2G4 | 
[V:4] z2E,4A,,2E,4 | 
[V:1] G2^F2G6E2 | 
[V:2] d4B4c4 | 
[V:3] A4G4z2c2- | 
[V:4] D,4z2E,4C,2 | 
[V:1] A4G2c3BA2- | 
[V:2] A4B2A2c4 | 
[V:3] c2d2e4e2f2- | 
[V:4] F,4E,2A,4F,2 | 
[V:1] A2G2A2c4B2- | 
[V:2] d4e3de2f2 | 
[V:3] f2edc6d2- | 
[V:4] _B,4z2A,4D,2 | 
[V:1] BAA4^G2A2E2 | 
[V:2] d4e4z2A2- | 
[V:3] dcA2B4c4- | 
[V:4] F,4E,4A,,4 | 
[V:1] c4B2d3cc2- | 
[V:2] ABc2d2f4e2 | 
[V:3] c4z4c4 | 
[V:4] z2A,2G,2F,2A,4 | 
[V:1] c2B2c4z2c2 | 
[V:2] g4z2c2e2f2 | 
[V:3] d4e4c3d | 
[V:4] G,4C,4z2A,2 | 
[V:1] B2d3cc4B2 | 
[V:2] g2a2f4g4 | 
[V:3] e2f3edcd4 | 
[V:4] G,2F,2A,4G,4 | 
[V:1] c3BAGG4^F2 | 
[V:2] e4z4z2c2 | 
[V:3] c2c4B2c4 | 
[V:4] z2A,2F,2G,2A,4 | 
[V:1] G2d2c3BAGG2- | 
[V:2] d2B2c2A4B2 | 
[V:3] z4c4d2e2- | 
[V:4] G,4z2A,2F,2G,2 | 
[V:1] G2^F2G4C2D2 | 
[V:2] c4d2e2A4 | 
[V:3] e2dcB2c4BA | 
[V:4] A,4G,2E,2F,4 | 
[V:1] E2F3EE4D2 | 
[V:2] B2c2d2e2A4 | 
[V:3] G2A2G2E2F4 | 
[V:4] E,2A,,2_B,,2C,2D,4 | 
[V:1] E2c4B2A4 | 
[V:2] c4A2B2c4 | 
[V:3] E12- | 
[V:4] z2A,,4G,,2A,,4 | 
[V:1] G12 |]  
[V:2] B12 |]  
[V:3] E12 |]  
[V:4] E,12 |]  



